X: 28456
T: Mulqueeney's
R: reel
M: 4/4
K: Gmajor
B2 Ac BG ~G2|(3BAG dc BG ~G2|B2 Ac BG~G2|(3Bcd ef gedc|
B2 Ac BG ~G2|(3BAG dc BG ~G2|B2 Ac BG~G2|(3Bcd ef g2 fg|
~a2 ab agfd|fgab c'2 {c'd'}c' ga|a2 ~ab abag|fdef g2 fg|
~a2 ab agfd|fgab c'2 bc'|d'b ~b2 c'a ~a2|gbaf gedc|

